X:1
T:Recess Theme Trombone Trio
T:Recess Theme Trombone Trio
T:Arranged by Quinn McArthur
C:Arranged by Quinn McArthur
%%score 1 2 3
L:1/8
Q:1/4=125
M:4/4
K:C
V:1 bass nm="Trombone" snm="Tbn."
V:2 bass nm="Trombone" snm="Tbn."
V:3 bass nm="Bass Trombone" snm="B. Tbn."
V:1
 z8 | z2!f! E>^D .E G2 .E | F>E .D.C B,4 | z2 D>_D .=D F2 .D | E>^D .E.A G4 | z E^D.E !^!G2 !^!C2 | %6
 z A^G.A c2 .B.A | !^!G2 !^!E2 D>G, .B,.D | !^!G2 !^!E2 D>G, .B,.D |!ff! !^!G2 !^!E2 D>G, .B,.D | %10
 z6 !>!_B,2 | !>!_E2!sfz! !>!_A4 z!fff! .G | !^!c2 z2 z4 |] %13
V:2
 z4 z!mf! .G,.A,.B, | .C2 z2 z4 | z4 z!mp! .E.D.C | .B,2 z2 z4 | z4 z!mp! ._E.=E.A | .G z4 E^D.E | %6
 !^!F,2 !^!F,2 !^!_G,2 !^!G,2 | .G,2 .G,2 .G,2 .G,2 |!f! !^!G,2 !^!E,2 D,>G,, .B,,.D, | %9
!ff! !^!G,2 !^!E,2 D,>G,, .B,,.D, | !>!G,,2 !>!C,2!sfz! !>!F,4- | F,6 z!fff! .G, | !^!C2 z2 z4 |] %13
V:3
 z8 |!mp! .C,2 .G,,2 .C,2 .E,2 | .G,,2 .D,2 .G,,2 .D,2 | .G,,2 .D,2 .G,,2 .B,,2 | %4
 .C,2 .G,,2 .C,2 .G,,2 | .C,2 .C,2 .E,,2 .E,,2 | .F,,2 .F,,2 ._G,,2 .G,,2 | %7
 .G,,2 .G,,2 .G,,2 .G,,2 | .G,,2 .G,,2 .G,,2 .G,,2 | .D,2 .G,,2 .D,2 .G,,2 |!sfz! !>!G,,8- | %11
 G,,6 z!fff! .G, | !^!C,2 z2 z4 |] %13

